static/assets/images/exchanges/ambient.svg

<svg width="301" height="262" viewBox="0 0 301 262" fill="none" xmlns="http://www.w3.org/2000/svg">
<path d="M92.8038 110.376H91.3038H89.8038C89.8038 145.139 116.924 173.421 150.5 173.421C184.076 173.421 211.196 145.139 211.196 110.376H209.696H208.196C208.196 141.394 182.4 166.604 150.5 166.604C118.6 166.604 92.8038 141.394 92.8038 110.376ZM81.324 110.056C81.324 102.022 82.1958 94.3754 84.5916 87.2859L83.1706 86.8056L81.7495 86.3254C79.2552 93.7064 77.3758 101.699 77.3758 110.056C77.3758 151.869 110.063 185.861 150.5 185.861C190.937 185.861 223.624 151.869 223.624 110.056C223.624 101.733 221.795 93.7717 219.317 86.4097L217.896 86.8881L216.474 87.3665C218.851 94.4292 219.676 102.046 219.676 110.056C219.676 148.12 188.732 178.192 150.5 178.192C112.268 178.192 81.324 148.12 81.324 110.056ZM224.984 67.8815L223.678 68.6183C230.587 80.8687 234.064 95.0583 234.064 110.222C234.064 155.504 196.707 191.003 150.5 191.003C104.293 191.003 66.936 155.504 66.936 110.222C66.936 95.0353 70.4629 80.8228 77.3952 68.5564L76.0893 67.8184L74.7834 67.0804C67.605 79.7822 62.9856 94.5049 62.9856 110.222C62.9856 159.559 102.137 199.61 150.5 199.61C198.863 199.61 238.014 159.559 238.014 110.222C238.014 94.5339 233.447 79.8342 226.291 67.1446L224.984 67.8815ZM49.9285 110.139C49.9285 86.9189 57.1665 65.5386 70.0903 48.4257L68.8933 47.5217L67.6963 46.6177C54.3929 64.2332 45.9789 86.2453 45.9789 110.139C45.9789 169.632 92.7305 217.942 150.5 217.942C208.27 217.942 255.021 169.632 255.021 110.139C255.021 86.2656 246.659 64.2699 233.374 46.6603L232.177 47.5636L230.979 48.467C243.883 65.5715 251.071 86.9353 251.071 110.139C251.071 164.805 206.087 208.124 150.5 208.124C94.9131 208.124 49.9285 164.805 49.9285 110.139ZM271.527 110.343C271.527 176.205 217.39 227.899 150.5 227.899C83.6091 227.899 29.4724 176.205 29.4724 110.343C29.4724 65.0835 53.3605 25.5827 89.665 4.4337L88.91 3.13759L88.155 1.84148C50.9675 23.5048 25.0477 63.9713 25.0477 110.343C25.0477 181.304 81.1797 238.894 150.5 238.894C219.82 238.894 275.952 181.304 275.952 110.343C275.952 63.8725 249.964 23.3317 212.643 1.7022L211.891 3L211.138 4.2978C247.572 25.4128 271.527 64.9854 271.527 110.343ZM296.5 110.376C296.5 189.627 231.225 249.144 150.5 249.144C69.7747 249.144 4.5 189.627 4.5 110.376H3H1.5C1.5 195.065 68.2103 260.5 150.5 260.5C232.79 260.5 299.5 195.065 299.5 110.376H298H296.5Z" fill="#8A89F1" stroke="#8A89F1" stroke-width="3"/>
</svg>

<svg xmlns="http://www.w3.org/2000/svg" fill="none" viewBox="0 0 301 262"><path fill="#8A89F1" stroke="#8A89F1" stroke-width="3" d="M92.804 110.376h-3c0 34.763 27.12 63.045 60.696 63.045s60.696-28.282 60.696-63.045h-3c0 31.018-25.796 56.228-57.696 56.228s-57.696-25.21-57.696-56.228Zm-11.48-.32c0-8.034.872-15.68 3.268-22.77l-1.421-.48-1.422-.48c-2.494 7.38-4.373 15.373-4.373 23.73 0 41.813 32.687 75.805 73.124 75.805s73.124-33.992 73.124-75.805c0-8.323-1.829-16.284-4.307-23.646l-1.421.478-1.422.478c2.377 7.063 3.202 14.68 3.202 22.69 0 38.064-30.944 68.136-69.176 68.136s-69.176-30.072-69.176-68.136Zm143.66-42.174-1.306.736c6.909 12.25 10.386 26.44 10.386 41.604 0 45.282-37.357 80.781-83.564 80.781s-83.564-35.499-83.564-80.781c0-15.187 3.527-29.4 10.46-41.666l-1.307-.738-1.306-.738c-7.178 12.702-11.797 27.425-11.797 43.142 0 49.337 39.151 89.388 87.514 89.388s87.514-40.051 87.514-89.388c0-15.688-4.567-30.388-11.723-43.077zM49.928 110.139c0-23.22 7.239-44.6 20.162-61.713l-1.197-.904-1.197-.904C54.393 64.233 45.98 86.245 45.98 110.139c0 59.493 46.752 107.803 104.521 107.803 57.77 0 104.521-48.31 104.521-107.803 0-23.873-8.362-45.87-21.647-63.479l-1.197.904-1.198.903c12.904 17.105 20.092 38.468 20.092 61.672 0 54.666-44.984 97.985-100.571 97.985S49.929 164.805 49.929 110.139Zm221.599.204c0 65.862-54.137 117.556-121.027 117.556S29.472 176.205 29.472 110.343c0-45.26 23.889-84.76 60.193-105.91l-.755-1.295-.755-1.297c-37.187 21.664-63.107 62.13-63.107 108.502 0 70.961 56.132 128.551 125.452 128.551s125.452-57.59 125.452-128.551c0-46.47-25.988-87.011-63.309-108.64L211.891 3l-.753 1.298c36.434 21.115 60.389 60.687 60.389 106.045Zm24.973.033c0 79.251-65.275 138.768-146 138.768s-146-59.517-146-138.768h-3c0 84.689 66.71 150.124 149 150.124s149-65.435 149-150.124z"/></svg>
